!!!CDT:
!!!PTL: Il primo libro de madrigali a sei voci
!!!PPP: Venice
!!!PPR: Angelo Gardano
!!!PDT: 1590
!!!PUB-format:
!!!RISM: M 1503
!!!rime: 190
!!!AGN: Madrigal
!!!SCT: Trm0190b
!!!SCA: Trm0190b
!!!original-voices: 6
!!!extant-voices: 2
!!!complete: N
!!!final: G
!!!COM: Mazza, Francesco
!!!OTL: Fummo felici un tempo
**kern	**text	**kern	**text
*part2	*part2	*part1	*part1
*staff2	*staff2	*staff1	*staff1
*I"Quinto	*	*I"Tenore	*
*I'V	*	*I'T	*
*oclefC3	*	*oclefC3	*
*clefGv2	*	*clefGv2	*
*k[b-]	*	*k[b-]	*
*omet(C)	*	*omet(C)	*
*M4/2	*	*M4/2	*
=1	=1	=1	=1
2B-y	Fum-	0r	.
4.f	-mo	.	.
8g	fe-	.	.
4d	-li-	.	.
4e-X	-ci un	.	.
2d	tem-	.	.
=2	=2	=2	=2
2d	-po	4r	.
.	.	4d	I-
2r	.	4G	-o a-
.	.	4.c	-man-
1r	.	.	.
.	.	8c	-t'et
.	.	4d	a-
.	.	8GL	-ma-
.	.	8A	.
.	.	8B-y	.
.	.	8cJ	.
=3	=3	=3	=3
1r	.	1d	.
4r	.	2c	-to,
4c	I-	.	.
4F	-o a-	2r	.
[4f	-man-	.	.
=4	=4	=4	=4
8f]	.	1r	.
8f	-t'e	.	.
4e	a-	.	.
2d	-ma-	.	.
2c	-to,	4r	.
.	.	4c	Tu
2r	.	4F	a-
.	.	[4f	-ma-
=5	=5	=5	=5
0r	.	8f]	.
.	.	8f	-ta et
.	.	4e	a-
.	.	2.d	-man-
.	.	4A	-t'in
.	.	4B-y	dol-
.	.	4c	-ce
=6	=6	=6	=6
1r	.	2e-X	sta-
.	.	2d	-to.
1d	Tu,	2r	.
.	.	2G	Tu,
=7	=7	=7	=7
4r	.	2c	Tu
4e	Tu	.	.
4f	d'a-	2r	.
4.f	-man-	.	.
.	.	1r	.
8f	-te	.	.
4f	ne-	.	.
4g	-mi-	.	.
8g	-ca	.	.
8a	Poi	.	.
=8	=8	=8	=8
4f	di-	1r	.
4f	-ve-	.	.
2g	-nis-	.	.
2a	-ti,	4r	.
.	.	4F	et
4r	.	2B-y	i-
4f	et	.	.
=9	=9	=9	=9
2f	i-	2F	-o
2d	-o	2r	.
1r	.	4r	.
.	.	4f	Vol-
.	.	8e	-s'in
.	.	8c	di-
.	.	4d	-sde-
=10	=10	=10	=10
4r	.	4c	-gno,
4f	Vol-	4r	.
8f	-s'in	4c	Vol-
8f	di-	.	.
4d	-sde-	8B-y	-s'in
.	.	8G	di-
2d	-gno	2d	-sde-
4r	.	2A	-gno
4d	il	.	.
=11	=11	=11	=11
4.d	gio-	1r	.
8e	-ve-	.	.
4f	-nil	.	.
4d	de-	.	.
[1d	-si-	4r	.
.	.	4G	il
.	.	4.F	gio-
.	.	8F	-ve-
=12	=12	=12	=12
1d]	.	4F	-nil
.	.	4G	de-
.	.	2A	-si-
2d	-o.	2BnX	-o.
4r	.	4r	.
[4G	Sde-	[4d	Sde-
=13	=13	=13	=13
4G]	.	4d]	.
4c	-gno	4c	-gno
4c	vuol	2A	vuol
2F	ch'io	.	.
.	.	4d	ch'io
4G	te'l	4d	te'l
2A	di-	2d	di-
=14	=14	=14	=14
2A	-ca,	1d	-ca,
2r	.	.	.
1r	.	2r	.
.	.	4d	Sde-
.	.	8d	-gno
.	.	8e	che
=15	=15	=15	=15
4r	.	4f	nel
4f	Tien	4a	mio
4.d	vi-	2g	pet-
8e	.	.	.
4f	.	4f	-to
4f	-va	4d	Tien
2g	l'on-	4e	vi-
.	.	4e	-va
=16	=16	=16	=16
2d	-ta	8fL	l'on-
.	.	8e	.
.	.	8f	.
.	.	8gJ	.
2r	.	4a	.
.	.	4a	-ta
4r	.	4a	del
2G	del	4g	mio
.	.	4g	duol
4G	mio	4g	ne-
=17	=17	=17	=17
4.A	duol	4f#X	-glet-
.	.	2g	.
8G	ne-	.	.
2A	-glet-	.	.
.	.	4f#X	.
2G	-to;	4g	-to;
.	.	8d	E
.	.	8d	le
2r	.	4e	fron-
.	.	8fnXi	-de
.	.	8f	ne
=18	=18	=18	=18
2r	.	4f	svel-
.	.	4d	-le,
4r	.	2r	.
8d	E	.	.
8d	le	.	.
4e	fron-	4r	.
8e	-de	8g	E
8f	ne	8f	le
4g	svel-	4e	fron-
4c	-le,	8e	-de
.	.	8d	ne
=19	=19	=19	=19
4r	.	2c	svel-
8g	<E	.	.
8f	le	.	.
4e	fron-	2c	-le,
8e	-de	.	.
8d	ne	.	.
1c	svel-	4r	.
.	.	8c	<E
.	.	8B-y	le
.	.	4A	fron-
.	.	8A	-de
.	.	8G	ne
=20	=20	=20	=20
2c	-le,>	4.F	svel-
.	.	8G	.
4r	.	8AL	.
.	.	8B-yJ	.
8f	E	2c	.
8e	le	.	.
2d	fron-	.	.
.	.	8B-yL	.
.	.	8AJ	.
4g	-de	2G	.
4d	ne	.	.
=21	=21	=21	=21
8eL	svel-	2G	-le>
8fJ	.	.	.
2g	.	.	.
.	.	4r	.
4d	-le	4G	Del
4r	.	4c	vo-
4e	Del	4c	-stro
4f	vo-	8FL	Lau-
.	.	8G	.
4f	-stro	8A	.
.	.	8B-yJ	.
=22	=22	=22	=22
8eL	Lau-	2.c	.
8d	.	.	.
8e	.	.	.
8fJ	.	.	.
4g	.	.	.
4c	-r'hor	4A	-r'hor
4d	sec-	2G	sec-
4d	-che	.	.
4r	.	2d	-che
4d	e	.	.
=23	=23	=23	=23
4d	già	2r	.
4g	sì	.	.
2f#X	bel-	4r	.
.	.	4d	e
2g	-le,	4.B-y	già
.	.	8c	sì
2r	.	2d	bel-
=24	=24	=24	=24
4r	.	2G	-le,
8d	E	.	.
8d	le	.	.
4e	fron-	2r	.
8fnX	-de	.	.
8f	ne	.	.
4f	svel-	2r	.
4d	-le,	.	.
2r	.	4r	.
.	.	8d	E
.	.	8d	le
=25	=25	=25	=25
4r	.	4e	fron-
8g	<E	8e	-de
8f	le	8f	ne
4e	fron-	4g	svel-
8e	-de	4c	-le,
8d	ne	.	.
2c	svel-	4r	.
.	.	8g	E
.	.	8f	le
2c	-le,>	4e	fron-
.	.	8e	-de
.	.	8d	ne
=26	=26	=26	=26
4r	.	1c	svel-
8c	E	.	.
8B-y	le	.	.
4A	fron-	.	.
8A	-de	.	.
8G	ne	.	.
4.F	svel-	2c	-le,
8G	.	.	.
8AL	.	4r	.
8B-yJ	.	.	.
[4c	.	8f	<E
.	.	8e	le
=27	=27	=27	=27
4c]	.	2d	fron-
8B-yL	.	.	.
8AJ	.	.	.
2G	.	4g	-de
.	.	4d	ne
2G	-le	8eL	svel-
.	.	8fJ	.
.	.	2g	.
4r	.	.	.
4G	Del	4d	-le>
=28	=28	=28	=28
4c	vo-	4r	.
4c	-stro	4e	Del
8FL	Lau-	4f	vo-
8G	.	.	.
8A	.	4f	-stro
8B-yJ	.	.	.
2.c	.	8eL	Lau-
.	.	8d	.
.	.	8e	.
.	.	8fJ	.
.	.	4g	.
4A	-r'hor	4c	-r'hor
=29	=29	=29	=29
2G	sec-	4d	sec-
.	.	4d	-che
2d	-che	4r	.
.	.	4d	e
2r	.	4d	già
.	.	4g	sì
4r	.	2f#X	bel-
4d	e	.	.
=30	=30	=30	=30
4.B-y	già	2g	-le,
8c	sì	.	.
2d	bel-	4r	.
.	.	4d	e
4G	-le,	4.B-y	già
2g	e	.	.
.	.	8c	sì
.	.	2d	bel-
[4f	già	.	.
=31	=31	=31	=31
8f]L	.	2d	-le,
8eJ	.	.	.
2d	.	.	.
.	.	4G	e
4e	sì	2c	già
4f#i	bel-	.	.
2g	.	4B-y	sì
.	.	2A	bel-
4f#X	.	.	.
=32	=32	=32	=32
0gl	-le.	0Gl	-le.
==	==	==	==
*-	*-	*-	*-
!!!system-decoration: [*]
!!!RDF**kern: i = editorial accidental
!!!RDF**kern: l = terminal long
!!!ENC: Emiliano Ricciardi
!!!END: 2018
!!!EED: Ricciardi, Emiliano
!!!EEV: 2018/09/18
!!!YEC: Copyright 2018 Emiliano Ricciardi, All Rights Reserved
!!!ONB: Translated from MusicXML on 2018/09/18 and edited by Craig Stuart Sapp
!!@@BEGIN:	VERSEDATA
!!@SOLERTI:	190
!!@CATALOGNUM:	Trm0190
!!@LAST_MODIFIED: 2020/07/12
!!@TITLE:		Fummo felici un tempo
!!@GENRE:		madrigale
!!@MANUSRC:	Pt
!!@PRINTSRC:	27, 70, 78, 141, 145 166, 169
!!@@BEGIN:	VERSES
!!@ABOUTIT:	Nel medesimo soggetto. (i.e., "IL LAURO SECCO." Rime 189)
!!@ABOUTEN:	On the same subject. (i.e., "THE DRY LAUREL." Rime 189)
!!@EDITOR:	Solerti, Angelo
!!@EDITION_TITLE: Le Rime di Torquato Tasso
!!@EDITION_LOC:	Bologna
!!@EDITION_PUB:	Romagnoli-Dall’Acqua
!!@EDITION_DATE:  1898-1902
!!@EDITION_VOL:	2
!!@EDITION_PAGE:  282
!!@TRANSLATOR:	Emiliano Ricciardi and Amyrose McCue Gill
!!@VERSE:
!!	Fummo un tempo felici
!!	Io amante ed amato,
!!	Tu amata ed amante in dolce stato.
!!	Poi d'amante nemica
!!	Voi diveniste, ed io
!!	Volsi in disdegno il giovenil desio.
!!	Sdegno vuol ch'io ve 'l dica,
!!	Sdegno che nel mio petto
!!	Tien viva l'onta del mio duol negletto;
!!	E le fronde ne svelle
!!	Del vostro lauro, or secche e già sì belle.
!!@TVERSE:
!!	We were once happy,
!!	I, lover and beloved;
!!	You, beloved and lover in a blissful state.
!!	Then an enemy of the lover
!!	You became, and I
!!	Turned into scorn my youthful desire.
!!	Scorn requires that I tell it to you,
!!	Scorn that in my heart
!!	Keeps alive the shame of my neglected pain;
!!	And it tears away the leafy branches
!!	Of your laurel, now dry and once so beautiful.
!!@@END:		VERSES
!!@OTHER_CRIT_ED:   None
!!@ATTRIBUTION_ABOUT:	Secure
!!		<br>
!!		Although this poem is attributed to Tasso only in prints that were not supervised by the poet (see Literary Sources), its subject matter and inclusion in the Ferrarese anthology for Laura Peperara <i>Il lauro secco</i>, to which Tasso is known to have contributed several poems (see <i>Rime</i> 189), strongly supports a Tassian attibution.
!!@DATING:	1582
!!@DEDICATEE:	Peperara, Laura
!!@COMMENTARY:
!!@@END:		VERSEDATA
!!@@BEGIN:	SETTING
!!@CATALOGNUM:	Trm0190b
!!@RIMETITLE:	Fummo felici un tempo
!!@SOLERTI:	190
!!@COMPOSER:	Mazza, Francesco
!!@PRINCEPSTITLE:	Il primo libro de madrigali a sei voci
!!@PRINCEPSLOC:	Venetia
!!@NORMLOC:	Venice
!!@NORMPUB:	Angelo Gardano
!!@NORMPUBSHORT:	Gardano
!!@PRINCEPSPUB:	Gardano
!!@PRINCEPSYEAR:	1590
!!@PRINCEPSRISM:	M 1503
!!@REPRINTS:	
!!@OVOICES:	6
!!@EXTANTVOICES:	2
!!@PARTBOOKS:	
!!@EXTPARTBOOKS:	
!!@OCLEFS:	C3,C3
!!@OMENSURATION:	C
!!@OKEYSIG:	b-
!!@FINAL:	G
!!@TIMPEDITOR:	Ricciardi, Emiliano
!!@NOTE:		
!!@@END:		SETTING
